X:17
T:Quick March. JGi.017
S:Joshua Gibbons MS,1823,Tealby,Lincs.
M:6/8
L:1/8
Q:3/8=90
R:march
O:Tealby,Lincolnshire
Z:VMP/R.Greig, 2009
K:F
c|f>gf ece| faa a2c|f>gf ece|fAA A2c|
f>gf ece|faa a2 g/f/|(eg)e fd=B|ccc c3:|
|:c/d/|ece fdf|geg afc|def gaf|egg g2a/b/|c’aa bgg|
aff gee|fcc ecA|B/c/dB gec|d/e/fd e/f/ge|fff f2:|

